X: 1
T: The Jig Of Slurs
R: jig
M: 6/8
L: 1/8
K: Dmaj
|:Add cdd|Bdd Add|Bdd Add|Bee edB|Add cdd|Bdd Add|Bdd cde|fec d3:||:A2f fef|a2f fed|B2e ede|f2f edB|A2f fef|a2f fed|Add cde|fec d3:|K:Gmaj|:G2g gfg|aff gff|G2g gfg|aff g3|G2g gfg|aff gff|e2e efg|fed e3:||:GBB Bdd|dee edB|GBB Bdd|dee efg|GBB Bdd|dee edB|e2e efg|fed e3:|


